!!!!SEGMENT: pl-sa--l-1636--103_anonim--rozmyslajmy-dzis-wierni-chrzescijanie.krn
!!!cenid: 17xx:810
!!!COM: Anonim
!!!COM-rism: pe30004985
!!!CDT:
!!!CNT:
!!!OTL: Rozmyślajmy dziś wierni chrześcijanie
!!!PDT:
!!!AGN: Sacred
!!!SMS-siglum: PL-SA
!!!SMS-shelfmark: L 1636
!!!NIFC-rismID: 1001087531
!!!URL-scan: http://repozytorium.nifc.pl/skany/pl-sa-nut--l1636
!!!ONB-nifc: 52v, skan 0044, s. 3-4
!!!SMS-variant:
!!!SMS-altvar:
**kern	**kern
*part2	*part1
*staff2	*staff1
*I'keyb	*
*clefF4	*clefC1
*k[b-]	*k[b-]
*M2/2	*M2/2
*met(c|)	*met(c|)
=1	=1
*^	*^
*2\right	*2\right	*2\right	*2\right
!	!	!LO:TX:i:b:t=Rozmyslaymy dzis	!
!	!LO:TX:a:t=P:problem:wszystkie caudy z prawej strony	!	!LO:TX:a:t=P:problem:wszystkie caudy z prawej strony
!	!	!LO:N:n=2:vis=2.	!
2G/	8GG\L	2b- 2g/	4.d\
.	8AA\	.	.
.	8BB-\	.	.
.	8C\J	.	8e\
4D/	4DD/	4a/	4f#X\
8D/L	4GG\	4b-/	4g\
8E/J	.	.	.
*	*	*v	*v
=2	=2	=2
1F	4.FF/	2cc/ 2a/ 2f/
.	8GG/	.
.	4AA/	2cc/ 2a/ 2f/
.	4FF/	.
=3	=3	=3
*	*	*^
2F/	4.BB-/	2dd/	1b- 1f
.	8C/	.	.
4D/	2BB-\	2dd/	.
4E/	.	.	.
*	*	*v	*v
=4	=4	=4
4ryy	4FF/	2cc 2a/
4ryy	4F#X\	.
2G/	8GG\L	2b- 2g/
.	8AA\	.
.	8BB-\	.
.	8C\J	.
=5	=5	=5
*	*	*^
2.D/	1DD	1a	4g\
!	!	!	!LO:TX:a:t=P:problem:# above
.	.	.	8f#\L
.	.	.	8e\J
.	.	.	2f#X\
4C/	.	.	.
*	*	*v	*v
*v	*v	*
=6	=6
1G 1D 1GG	1g 1d 1B-
=7:|!|:	=7:|!|:
*^	*
*	*	*^
2F/	4.BB-/	4.dd/	4.b-\
.	8FF/	8cc/	8a\
2ryy	8GG/L	8b-/L	8g\L
.	8FF/J	8cc/J	8a\J
.	16BB-/LL	4dd/	4b-\
.	16C/	.	.
.	16D/	.	.
.	16E/JJ	.	.
!!LO:LB:g=original
=8	=8	=8	=8
1F	4.FF/	2cc 2a/	1f
.	8GG/	.	.
.	8AA/L	2cc 2a/	.
.	8GG/	.	.
.	8AA/	.	.
.	8FF/J	.	.
=9	=9	=9	=9
2F/	4FF\	4cc/	4a\
.	4BB-\	4dd/	4b-\
2ryy	4ryy	4cc/	4a\
.	4F#X\	8cc/L	4a\
.	.	8dd/J	.
*	*	*v	*v
=10	=10	=10
!LO:TX:a:t=P:problem:mixed beam	!	!LO:N:n=2:vis=4
8G\L	2ryy	2b-/ 2g/
16GG/L	.	.
16AA/JJ	.	.
8BB-/L	.	.
8C/J	.	.
2D/	2DD/	2a/ 2f#X/
*v	*v	*
=11	=11
*	*^
8BB-/L	2dd/ 2b-/	2ryy
8C/	.	.
8D/	.	.
8E/J	.	.
8F\L	4cc/	4a\
8F#X\J	.	.
!LO:TX:a:t=P:problem:mixed beam	!	!
8G\L	4b-/	4g\
8C/J	.	.
=12	=12	=12
*^	*	*
2D/	2DD/	2a#X/	8g\L
.	.	.	16f\L
.	.	.	16e\JJ
.	.	.	8d\L
.	.	.	8c\J
!	!	!LO:TX:a:t=P:problem:utwór kończy się kreską z obustronną repetycją	!
2G/	2GG/	2g/ 2d# 2B#/	2ryy
*v	*v	*	*
*	*v	*v
==	==
*-	*-
!!!system-decoration: s1,s2
!!!RDF**kern: > = above
!!!RDF**kern: < = below
!!!EED: Mateusz Mrugas
!!!EST: 2020-12-09
!!!ENC: Berenika Jozajtis
!!!END: 2020-06-13
